X:1
T:Cape Breton Fiddlers' Welcome to Shetland
M:C
L:1/8
Q:80
C:Willie Hunter
S:Reel
K:HP
|: af | \
{g}ec{g}c{G}c{g}cd{g}B{d}c | \
{g}AB{g}ce{g}fB{g}BB |
{g}Bc{g}BA{g}B{d}f{g}f{d}e | \
{g}Bf{g}fe{g}f2{g}ef | \
ac{g}c{G}c{g}eA{gAGAG}A2 |
{g}Aaaf{g}eccc | \
{g}ef{g}fe{g}fgaf | \
{g}ec{g}B{d}c{G}A2 ::
{g}fg | \
ae{g}e{A}e{g}ef{g}ed | \
{g}ce{g}e{A}e{g}fe{g}ce |
af{g}f{e}f{g}fg{a}fe | \
{g}de{g}fd{g}B{G}B{g}fg | \
ae{g}e{A}e{g}ef{g}ed |
{g}ce{g}e{A}e{g}fe{g}ce | \
{g}fd{a}geaf{g}ed | \
{g}cd{g}B{d}c{g}A2 :|
